X: 1
T: Yom ha Shabes   [Gm]
T: Shabes Day
C: trad. arr. Shana Aisenberg
R: hora
S: Fiddle Hell Online 2021 workshop handout
Z: 2021 John Chambers <jc:trillian.mit.edu> 2021-6-7
N: Transposed down from the original Dm for tenor/bass singers and fiddlers.
M: 2/4
L: 1/8
K: Gm
|:\
"Gm"DB AG | DB AG | B2 B2 | B3 B | AB ^cd | ^cB AG | B2 B2 | B4 |
"Gm"DB AG | DB AG | "Cm"c2 c2 | c3 d | "D"d^c cB | BA AG | "Gm"G4- |1 G4 :|2 GF Bc |
|:\
"Bb"d2 cB | d2 cB | d2 d2 | d4 | d=e fe | gf =ef | d2 d2 | d4 |
"Bb"dd cB | dd cB | "Cm"c2 c2 | c3 d | "D"dc cB | BA AG | "Gm"G4- |1 GF Bc :|2 G4 |]
